X: 47
T: Praeludia organi op. 5 – Moderato
C: Franciszek Walczyński
%%abc-version 2.0
%%abcx-abcm2ps-target-version 5.9.1 (29 Sep 2008)
%%abc-creator hum2abc beta
%%abcx-conversion-date 2021/10/04 07:38:39
%%abc-edited-by Andrzej Borzym
%%abc-edited-by Krzysztof Stępień
%%abcx-initial-encoding-date 2021-07-26
%%humdrum-veritas 4150771961
%%humdrum-veritas-data 3701683384
%%linebreak <none>
%%barnumbers 0
L: 1/4
M: 3/2
N: Derived from pl-kozmzk--mzk-m-159--036_walczynski-franciszek--praeludia-organi-op-5-moderato.krn
Q: "36. Moderato."
%%staves {1 2}
V: 1 clef=treble
V: 2 clef=bass
K: Ab
[V:1] z6 & z6 | 
[V:2] A,B,C2C2 & z6 | 
[V:1] z6 & z6 | 
[V:2] B,A,B,2B,2 & z6 | 
[V:1] z6 & z6 | 
[V:2] B,CD2D2 & G,A,F,2G,2 | 
[V:1] z6 & z6 | 
[V:2] CB,C2C2 & A,G,A,2A,2 | 
[V:1] BBB2cB & E=DE2=E2 | 
[V:2] B,A,2<G,2C & G,F,E,_D,C,2 | 
[V:1] AGABc2 & F=EFG_E2 | 
[V:2] C2>G,2A,2 & F,C,F,E,A,,2 | 
[V:1] BBB2cB & E=DE_DC=E | 
[V:2] G,A,B,A,G,C & E,F,G,F,E,C, | 
[V:1] AGA2!fermata!A2 & E2F2F2 | 
[V:2] C!accent!D2C/=B,/C2 & F,B,,F,,2!fermata!F,,2 | 
[V:1] BBB2c3/B/ & GAGF=EF/G/ | 
[V:2] EFEDC=D/=E/ & z6 | 
[V:1] AGABc2 & F=EFF/G/=E2 | 
[V:2] FC/B,/A,D,C,2 & z6 | 
[V:1] BBB2cB & _E=DE2=EF | 
[V:2] G,A,2<G,2B, & G,F,E,_D,C,D, | 
[V:1] AGA2A2 & _ED-DC/B,/C2 | 
[V:2] CB,A,2A,2 & E,2A,2A,,2 | 
[V:1] A6 & CEE2D2 | 
[V:2] _G,2F,4 & A,,6- | 
[V:1] dBd2c2 & D2A4 | 
[V:2] _F,2E,4 & A,,6- | 
[V:1] B2A2G2 & FB,E4- | 
[V:2] =D,2_D,4 & A,,6- | 
[V:1] !fermata!A6 & E6 |]  
[V:2] C,6 & !fermata!A,,6 |]  


